public/svg/doc.svg

<svg width="36" height="36" viewBox="0 0 36 36" fill="none" xmlns="http://www.w3.org/2000/svg">
<mask id="mask0_1390_3539" style="mask-type:alpha" maskUnits="userSpaceOnUse" x="0" y="0" width="36" height="36">
<rect width="36" height="36" fill="#D9D9D9"/>
</mask>
<g mask="url(#mask0_1390_3539)">
<path d="M12 27H24V24H12V27ZM12 21H24V18H12V21ZM9 33C8.175 33 7.469 32.7065 6.882 32.1195C6.294 31.5315 6 30.825 6 30V6C6 5.175 6.294 4.4685 6.882 3.8805C7.469 3.2935 8.175 3 9 3H21L30 12V30C30 30.825 29.7065 31.5315 29.1195 32.1195C28.5315 32.7065 27.825 33 27 33H9ZM19.5 13.5V6H9V30H27V13.5H19.5Z" fill="#8041FF"/>
</g>
</svg>

<svg width="36" height="36" fill="none" xmlns="http://www.w3.org/2000/svg"><mask id="a" style="mask-type:alpha" maskUnits="userSpaceOnUse" x="0" y="0" width="36" height="36"><path fill="#D9D9D9" d="M0 0h36v36H0z"/></mask><g mask="url(#a)"><path d="M12 27h12v-3H12v3Zm0-6h12v-3H12v3ZM9 33a2.888 2.888 0 0 1-2.118-.88A2.89 2.89 0 0 1 6 30V6c0-.825.294-1.532.882-2.12A2.888 2.888 0 0 1 9 3h12l9 9v18c0 .825-.294 1.532-.88 2.12A2.893 2.893 0 0 1 27 33H9Zm10.5-19.5V6H9v24h18V13.5h-7.5Z" fill="#8041FF"/></g></svg>
